X:6472
T:Govend(s)
O:Kurdistan
M:4/4
K:G
|:G2AAG2AF|G2AAG2F2:|
B2BBA2B/2A/2B|G2AAG2F2|G2AAG2AF|G2AAG2F2|
|:G2AAG2AF|G2AAG2F2:|
B2BBA2B/2A/2B|G2AAG2F2|G2AAG2AF|G2AAG2F2|
|:G>FGFE>DEF|G>FGFE2E2:|
|:A2AAG2FG|A2AAG2F2:|
|:G>FGFE>DEF|G>FGFE2E2:|
|:A2AAG2FG|A2AAG2F2:|
|:G>FGFE>DEF|G>FGFE2E2:|
|:DGGGGGGF|A2GFzF/2A/2G2:|
|:ABABABAB|B2ABzAB2:|
|:AdAAGGGF|A2GFzF/2A/2G2:|
|:DGGGGGGF|A2GFzF/2A/2G2:|
|:ABABABAB|B2ABzAB2:|
|:AdAAGGGF|A2GFzF/2A/2G2:|
|:FG/2A/2G/2A/2F/2G/2EEF2|FG/2A/2G/2A/2F/2G/2EEE2:|
|:GGFGEEF2|GGFGEEE2:|DGGGG2G2|G2G2G2G2|GGF2FFE2|EED3D4|
|:FG/2A/2G/2A/2F/2G/2EEF2|FG/2A/2G/2A/2F/2G/2EEE2:|
|:GGFGEEF2|GGFGEEE2:|DGGGG2G2|G2G2G2G2|GGF2FFE2|EED3D4||


